!!!!SEGMENT: pl-kk--kk-i-382--002-001_anonim--nro-1-kyrie.krn
!!!cenid: 18xx:1454
!!!COM: Anonim
!!!COM-rismID:
!!!CDT:
!!!CNT:
!!!OPR: Nro 1
!!!OTL: Kyrie
!!!OMV: 002
!!!PDT:
!!!AGN: Sacred
!!!SMS-siglum: PL-Kk
!!!SMS-shelfmark: Kk.I.382
!!!SMS-shelfwork: 001-002 M
!!!SMS-variant:
!!!SMS-altvar:
!!!NIFC-rismSourceID: 1001139072
!!!NIFC-islandoraID: pl-kk:6162
!!!URL-pdf-islandora: https://repozytorium.nifc.pl/islandora/object/pl-kk%3A6162/datastream/PDF/view
!!!URL-scan: https://polish.musicsources.pl/pl/lokalizacje/galeria/rekopisy/5994 @EN{Scan on Polish Music Herritage in Open Access Website} @PL{Skany w portalu Dziedzictwo Muzyki Polskiej w otwartym dostępie}
!!!ONB-nifc: UWAGA: obsada: S (T 1) (skany 0003-004), T 2 (skany 0073-0074), A (B 1) (skany 0146-0147), B 2 (skan 0219). Kyrie + Christe
!!!AIN: 1 alto 1 bass 2 tenor
!!!key:
**kern	**text	**kern	**text	**kern	**text	**kern	**text
*part4	*part4	*part3	*part3	*part2	*part2	*part1	*part1
*staff4	*staff4	*staff3	*staff3	*staff2	*staff2	*staff1	*staff1
*Ibass	*	*Itenor	*	*Ialto	*	*Itenor	*
*I"Basso II	*	*I"Tenore II	*	*I"Alto vel Basso I	*	*I"Soprano vel Tenore I.	*
*I'B 2	*	*I'T 2	*	*I'A (B 1)	*	*I'S (T 1)	*
*clefF4	*	*clefC4	*	*clefC3	*	*clefC1	*
*k[]	*	*k[]	*	*k[]	*	*k[]	*
*C:	*	*C:	*	*C:	*	*C:	*
*M4/4	*	*M4/4	*	*M4/4	*	*M4/4	*
*met(C.)	*	*met(C.)	*	*met(C.)	*	*met(C.)	*
=1	=1	=1	=1	=1	=1	=1	=1
*2\right	*	*2\right	*	*2\right	*	*2\right	*
!LO:TX:t=P:problem=all\right&colon; global	!	!	!	!	!	!LO:TX:a:t=P:all\right:problem	!
!	!	!LO:TX:t=P:problem=all\right&colon; global	!	!LO:TX:t=P:problem=all\right&colon; global	!	!	!
!LO:TX:a:t=P:problem=w źródle "in C. Kyrie" zapisane przed pierwszym taktem, na pięciolinii i częściowo nad pięciolinią	!	!LO:TX:a:t=P:problem=w źródle "Kyrie" zapisane przed pierwszym taktem, na wysokości pięciolinii	!	!LO:TX:a:t=P:problem=w źródle "Kyrie" zapisane przed pierwszym taktem, na wysokości pięciolinii	!	!LO:TX:a:t=P:problem=w źródle "Kyrie" zapisane przed pierwszym taktem, na wysokości pięciolinii	!
!LO:TX:a:i:t=in C.\nKyrie	!	!LO:TX:a:i:t=Kyrie	!	!LO:TX:a:i:t=Kyrie	!	!LO:TX:a:i:t=Kyrie	!
4.C/	Ky-	4.c\	Ky-	4.g\	Ky-	4.ee\	Ky-
8D/	-ri-	8B\	-ri-	8f\	-ri-	8dd\	-ri-
4E\	-e	4G/	-e	4e\	-e	4cc\	-e
4F\	e-	4G/	e-	4f\	e-	4dd\	e-
=2	=2	=2	=2	=2	=2	=2	=2
4G\	-lei-	4G/	-lei-	4e\	-lei-	4cc\	-lei-
4GG/	-son	4G/	-son	4d\	-son	4b\	-son
2G\	e-	2B\	e-	2f\	e-	2dd\	e-
=3	=3	=3	=3	=3	=3	=3	=3
1G	-lei-	1B	-lei-	(>4f\	-le-	(>4dd\	-le-
.	.	.	.	8e\L	.	8cc\L	.
.	.	.	.	8f\J)	.	8dd\J)	.
.	.	.	.	(>4g\	-i-	(>4ee\	-i-
.	.	.	.	4f\)	.	4dd\)	.
=4	=4	=4	=4	=4	=4	=4	=4
2C/	-son	2G/	-son	2e\	-son	2cc\	-son
4C/	Ky-	4c\	Ky-	4g\	Ky-	4ee\	Ky-
4E\	-ri-	4c\	-ri-	4e\	-ri-	4cc\	-ri-
=5	=5	=5	=5	=5	=5	=5	=5
4F\	-e	4c\	-e	4.c\	-e	4.a\	-e
4B-X\	e-	4c\	e-	.	.	.	.
.	.	.	.	8d\	e-	8b-X\	e-
4c\	-le-	2c\	-lei-	4c/	-le-	4a\	-le-
4C/	-i-	.	.	4B-X/	-i-	4g\	-i-
!	!	!	!	!	!	!LO:LB:g=original	!
=6	=6	=6	=6	=6	=6	=6	=6
2F\	-son	2c\	-son	2A/	-son	2f/	-son
4D\	Ky-	4F#X/	Ky-	4a\	Ky-	4dd\	Ky-
4F#X\	-ri-	4A/	-ri-	4f#X\	-ri-	4dd\	-ri-
!	!	!	!	!LO:LB:g=original	!	!	!
=7	=7	=7	=7	=7	=7	=7	=7
4G\	-e	4d\	-e	4.d\	-e	4.bn\	-e
4B\	e-	4d\	e-	.	.	.	.
.	.	.	.	8e\	e-	8cc\	e-
4d\	-le-	2d\	-lei-	4d\	-le-	4b\	-le-
4D\	-i-	.	.	4c\	-i-	4a\	-i-
!LO:LB:g=original	!	!LO:LB:g=original	!	!	!	!	!
=8	=8	=8	=8	=8	=8	=8	=8
2G\	-son	2d\	-son	2Bn/	-son	2g\	-son
4G\	Ky-	4B\	Ky-	4f\	Ky-	4dd\	Ky-
4G\	-ri-	4B\	-ri-	4d\	-ri-	4b\	-ri-
=9	=9	=9	=9	=9	=9	=9	=9
(>4c\	-e	2.G/	-e	(>4e\	-e	4cc\	-e
4G\)	.	.	.	4f\	.	4dd\	e-
(>4E\	e-	.	.	4g\)	.	4ee\	.
4BB/)	.	4A/	e-	(>8a\L	e-	8ff\L	.
.	.	.	.	8f\J)	.	8dd\J	.
=10	=10	=10	=10	=10	=10	=10	=10
(>4C/	-le-	1G	-lei-	2e\	-le-	2cc\	-le-
4E\)	.	.	.	.	.	.	.
(>4G\	-i-	.	.	2d\	-i-	2b\	-i-
4GG/)	.	.	.	.	.	.	.
=11	=11	=11	=11	=11	=11	=11	=11
2C/	-son	2G/	-son	2e\	-son	2cc\	-son
!	!	!	!	!	!	!LO:LB:g=original	!
4G\	Ky-	4B\	Ky-	4f\	Ky-	4dd\	Ky-
4G\	-ri-	4G\	-ri-	4d\	-ri-	4b\	-ri-
=12	=12	=12	=12	=12	=12	=12	=12
(>4c\	-e	2.G/	-e	(>4e\	-e	4cc\	-e
4G\)	.	.	.	4f\	.	4dd\	e-
(>4E\	e-	.	.	4g\)	.	4ee\	.
4BB/)	.	4A/	e-	(>8a\L	e-	8ff\L	.
.	.	.	.	8f\J)	.	8dd\J	.
=13	=13	=13	=13	=13	=13	=13	=13
(>4C/	-le-	1G	-lei-	2e\	-le-	2cc\	-le-
4E\	.	.	.	.	.	.	.
4G\)	.	.	.	2d\	-i-	2b\	-i-
4GG/	-i-	.	.	.	.	.	.
=14	=14	=14	=14	=14	=14	=14	=14
!	!	!LO:TX:a:t=P:problem=w źródle ta adnotacja zapisana za taktem 14, na pięciolinii	!	!LO:TX:a:t=P:problem=w źródle ta adnotacja zapisana za taktem 14, na pięciolinii	!	!LO:TX:a:t=P:problem=w źródle ta adnotacja zapisana za taktem 14, na pięciolinii	!
!	!	!LO:TX:b:i:t=V&colon; S&colon;	!	!LO:TX:b:i:t=V&colon; S&colon;	!	!LO:TX:b:i:t=Seque Christe V&colon; S&colon;	!
1C	-son	1G	-son.	1e	-son.	1cc	-son.
!LO:LB:g=original	!	!	!	!LO:PB:g=original	!	!LO:PB:g=original	!
==15	==15	==15	==15	==15	==15	==15	==15
!LO:TX:a:t=P:problem=w źródle ta adnotacja zapisana przed taktem 15, na pięciolinii	!	!LO:TX:a:t=P:problem=w źródle ta adnotacja zapisana przed taktem 15, na pięciolinii	!	!	!	!LO:TX:a:t=P:problem=w źródle ta adnotacja zapisana przed taktem 15, na pięciolinii	!
!LO:TX:a:i:t=Christe	!	!LO:TX:a:i:t=Christe	!	!	!	!LO:TX:a:i:t=Christe	!
4c\	Chri-	2c\	Chri-	2g\	Chri-	2ee\	Chri-
4G\	.	.	.	.	.	.	.
(>8F\L	-ste	4c\	-ste	4g\	-ste	4ee\	-ste
8E\J)	.	.	.	.	.	.	.
(>8D\L	e-	4c\	e-	4g\	e-	4ee\	e-
8C\J)	.	.	.	.	.	.	.
=16	=16	=16	=16	=16	=16	=16	=16
2G\	-lei-	(<8B/L	-le-	2g\	-lei-	(>8dd\L	-le-
.	.	8A/J)	.	.	.	8cc\J)	.
.	.	(<8G/L	-i-	.	.	(>8b\L	-i-
.	.	8A/J)	.	.	.	8cc\J)	.
2GG/	-son	2B\	-son	2g\	-son	2dd\	-son
=17	=17	=17	=17	=17	=17	=17	=17
(>4G\	Chri-	2B\	Chri-	2f\	Chri-	2dd\	Chri-
4d\)	.	.	.	.	.	.	.
(>8c\L	-ste	4B\	-ste	4f\	-ste	4dd\	-ste
8B\J)	.	.	.	.	.	.	.
(>8A\L	e-	4B\	e-	4f\	e-	4dd\	e-
8G\J)	.	.	.	.	.	.	.
=18	=18	=18	=18	=18	=18	=18	=18
4c\	-le-	2c\	-lei-	2g\	-lei-	(>8ee\L	-le-
.	.	.	.	.	.	8dd\J)	.
(>8G\L	-i-	.	.	.	.	(>8ee\L	-i-
8E\J)	.	.	.	.	.	8ff\J)	.
2C/	-son	2c\	-son	2g\	-son	2ee\	-son
=19	=19	=19	=19	=19	=19	=19	=19
4C/	Chri-	2c\	e-	2g\	e-	4ee\	Chri-
(<8C/L	-ste	.	.	.	.	8ee\	-ste
8D/J)	e-	.	.	.	.	8dd\	e-
(>8E\L	-le-	2c\	-lei-	2g\	-lei-	(>8cc\L	-le-
8D\J)	.	.	.	.	.	8b\J)	.
!	!	!	!	!	!	!LO:LB:g=original	!
(>8E\L	-i-	.	.	.	.	(>8cc\L	-i-
8F\J)	.	.	.	.	.	8dd\J)	.
=20	=20	=20	=20	=20	=20	=20	=20
2G\	-son	2B\	-son	2.g\	-son	2dd\	-son
2r	.	2r	.	.	.	2r	.
.	.	.	.	4r	.	.	.
!LO:LB:g=original	!	!	!	!	!	!	!
=21	=21	=21	=21	=21	=21	=21	=21
(>4B\	Chri-	(>4d\	Chri-	4d\	Chri-	(>4b\	Chri-
4A\)	.	4c\)	.	4e\	.	4cc\)	.
!	!	!LO:LB:g=original	!	!	!	!	!
4G\	-ste	4B\	-ste	4f\	-ste	4dd\	-ste
(>8A\L	e-	(>8c\L	e-	4f\	e-	4dd\	e-
8B\J)	.	8d\J)	.	.	.	.	.
=22	=22	=22	=22	=22	=22	=22	=22
4c\	-le-	4e\	-le-	4g\	-le-	4cc\	-le-
4G\	-i-	4d\	-i-	4f\	-i-	4b\	-i-
4E\	-son	4c\	-son	4e\	-son	4g\	-son
4C\	e-	4e\	e-	4g\	e-	4g\	e-
!	!	!	!	!LO:LB:g=original	!	!	!
=23	=23	=23	=23	=23	=23	=23	=23
(>4F\	-le-	2d\	-le-	2f\	-le-	2a\	-le-
4D\)	.	.	.	.	.	.	.
2G\	-i-	2B\	-i-	2d\	-i-	2g\	-i-
=24	=24	=24	=24	=24	=24	=24	=24
2C/	-son	2c\	-son	2.e\	-son	2g\	-son
2r	.	2r	.	.	.	2r	.
.	.	.	.	4r	.	.	.
=25	=25	=25	=25	=25	=25	=25	=25
(>4G\	Chri-	(>4B\	Chri-	2f\	Chri-	2dd\	Chri-
4A\)	.	4c\)	.	.	.	.	.
(>8c\L	-ste	(>8e\L	-ste	4f\	-ste	4dd\	-ste
8B\J)	.	8d\J)	.	.	.	.	.
(>8A\L	e-	(>8c\L	e-	4f\	e-	4dd\	e-
8G\J)	.	8B\J)	.	.	.	.	.
!	!	!	!	!	!	!LO:LB:g=original	!
=26	=26	=26	=26	=26	=26	=26	=26
4E\	-le-	4c\	-le-	4g\	-le-	4g\	-le-
4D\	-i-	4d\	-i-	4f\	-i-	4b\	-i-
(>8C\L	-son	(>8e\L	-son	(>8e\L	-son	4g\	-son
8D\J)	.	8d\J)	.	8f\J)	.	.	.
(>8E\L	e-	(>8c\L	e-	(>8g\L	e-	4g\	e-
8F\J)	.	8B\J)	.	8a\J)	.	.	.
!LO:LB:g=original	!	!	!	!	!	!	!
=27	=27	=27	=27	=27	=27	=27	=27
2G\	-le-	2c\	-le-	2g\	-le-	2ee\	-le-
2GG/	-i-	2B\	-i-	2g\	-i-	2dd\	-i-
=28	=28	=28	=28	=28	=28	=28	=28
!LO:TX:a:t=P:problem=w źródle ta adnotacja zapisana za taktem 28, na pięciolinii	!	!	!	!	!	!LO:TX:a:t=P:problem=w źródle ta adnotacja zapisana za taktem 28, na pięciolinii	!
!LO:TX:a:i:t=Kyrie da Capo.	!	!	!	!	!	!LO:TX:a:i:t=Kyrie da Capo.	!
1C	-son.	1c	-son	1g	-son.	1ee	-son.
!	!	!LO:LB:g=original	!	!LO:LB:g=original	!	!	!
==29	==29	==29	==29	==29	==29	==29	==29
!LO:TX:t=P:problem=powtórzenie taktów 1-14	!	!	!	!	!	!LO:TX:t=P:problem=powtórzenie taktów 1-14	!
4.C/yy	Ky-	4.c\	Ky-	4.g\	Ky-	4.ee\yy	Ky-
8D/yy	-ri-	8B\	-ri-	8f\	-ri-	8dd\yy	-ri-
4E\yy	-e	4G/	-e	4e\	-e	4cc\yy	-e
4F\yy	e-	4G/	e-	4f\	e-	4dd\yy	e-
=30	=30	=30	=30	=30	=30	=30	=30
4G\yy	-lei-	4G/	-lei-	4e\	-lei-	4cc\yy	-lei-
4GG/yy	-son	4G/	-son	4d\	-son	4b\yy	-son
2G\yy	e-	2B\	e-	2f\	e-	2dd\yy	e-
=31	=31	=31	=31	=31	=31	=31	=31
1Gyy	-lei-	1B	-lei-	(>4f\	-le-	(>4dd\yy	-le-
.	.	.	.	8e\L	.	8cc\Lyy	.
.	.	.	.	8f\J)	.	8dd\J)yy	.
.	.	.	.	(>4g\	-i-	(>4ee\yy	-i-
.	.	.	.	4f\)	.	4dd\)yy	.
=32	=32	=32	=32	=32	=32	=32	=32
2C/yy	-son	2G/	-son	2e\	-son	2cc\yy	-son
4C/yy	Ky-	4c\	Ky-	4g\	Ky-	4ee\yy	Ky-
4E\yy	-ri-	4c\	-ri-	4e\	-ri-	4cc\yy	-ri-
=33	=33	=33	=33	=33	=33	=33	=33
4F\yy	-e	4c\	-e	4.c\	-e	4.a\yy	-e
4B-X\yy	e-	4c\	e-	.	.	.	.
.	.	.	.	8d\	e-	8b-X\yy	e-
4c\yy	-le-	2c\	-lei-	4c\	-le-	4a\yy	-le-
4C/yy	-i-	.	.	4B-X/	-i-	4g\yy	-i-
=34	=34	=34	=34	=34	=34	=34	=34
2F\yy	-son	2c\	-son	2A/	-son	2f/yy	-son
4D\yy	Ky-	4F#X/	Ky-	4a\	Ky-	4dd\yy	Ky-
4F#X\yy	-ri-	4A/	-ri-	4f#X\	-ri-	4dd\yy	-ri-
=35	=35	=35	=35	=35	=35	=35	=35
4G\yy	-e	4d\	-e	4.d\	-e	4.bn\yy	-e
4B\yy	e-	4d\	e-	.	.	.	.
.	.	.	.	8e\	e-	8cc\yy	e-
4d\yy	-le-	2d\	-lei-	4d\	-le-	4b\yy	-le-
4D\yy	-i-	.	.	4c\	-i-	4a\yy	-i-
!	!	!LO:LB:g=original	!	!LO:LB:g=original	!	!	!
=36	=36	=36	=36	=36	=36	=36	=36
2G\yy	-son	2d\	-son	2Bn/	-son	2g\yy	-son
4G\yy	Ky-	4B\	Ky-	4f\	Ky-	4dd\yy	Ky-
4G\yy	-ri-	4B\	-ri-	4d\	-ri-	4b\yy	-ri-
=37	=37	=37	=37	=37	=37	=37	=37
(>4c\yy	-e	2.G/	-e	(>4e\	-e	4cc\yy	-e
4G\)yy	.	.	.	4f\	.	4dd\yy	e-
(>4E\yy	e-	.	.	4g\)	.	4ee\yy	.
4BB/)yy	.	4A/	e-	(>8a\L	e-	8ff\Lyy	.
.	.	.	.	8f\J)	.	8dd\Jyy	.
=38	=38	=38	=38	=38	=38	=38	=38
(>4C/yy	-le-	1G	-lei-	2e\	-le-	2cc\yy	-le-
4E\)yy	.	.	.	.	.	.	.
(>4G\yy	-i-	.	.	2d\	-i-	2b\yy	-i-
4GG/)yy	.	.	.	.	.	.	.
=39	=39	=39	=39	=39	=39	=39	=39
2C/yy	-son	2G/	-son	2e\	-son	2cc\yy	-son
4G\yy	Ky-	4B\	Ky-	4f\	Ky-	4dd\yy	Ky-
4G\yy	-ri-	4G/	-ri-	4d\	-ri-	4b\yy	-ri-
=40	=40	=40	=40	=40	=40	=40	=40
(>4c\yy	-e	2.G/	-e	(>4e\	-e	4cc\yy	-e
4G\)yy	.	.	.	4f\	.	4dd\yy	e-
(>4E\yy	e-	.	.	4g\)	.	4ee\yy	.
4BB/)yy	.	4A/	e-	(>8a\L	e-	8ff\Lyy	.
.	.	.	.	8f\J)	.	8dd\Jyy	.
=41	=41	=41	=41	=41	=41	=41	=41
(>4C/yy	-le-	1G	-lei-	2e\	-le-	2cc\yy	-le-
4E\yy	.	.	.	.	.	.	.
4G\)yy	.	.	.	2d\	-i-	2b\yy	-i-
4GG/yy	-i-	.	.	.	.	.	.
=42	=42	=42	=42	=42	=42	=42	=42
1Cyy	-son	1G	-son.	1e	-son.	1ccyy	-son.
==	==	==	==	==	==	==	==
*-	*-	*-	*-	*-	*-	*-	*-
!!!system-decoration: [(s1,s2,s3,s4)]
!!!RDF**kern: > = above
!!!RDF**kern: < = below
!!!EED: Antoni Szymański
!!!EEV: 2021-02-08
!!!ENC: Andrzej Gręziak
!!!END: 2021-01-27
